!!!OTL: HOFFNUNG HOFFNUNG MILD WIE FRUEHLINGSSCHIMMER
!!!ARE: Europa, Mitteleuropa, Deutschland, Thueringen; Schlesien
!!!SCT: B0286
!!!YEM: Copyright 1995, estate of Helmut Schaffrath.
**kern
*ICvox
*Ivox
*M4/4
*k[f#]
*G:
{8.b
16a
=1
8a
8g
4g
8g
8g
8b
8g
=2
8f#
8e
2e}
{8.cc
16b
=3
8b
8a
4a
8a
8ee
8dd
8f#
=4
4a
4g
4r}
{8.b
16a
=5
8a
8g
4g
8g
8g
8b
8g
=6
8f#
8e
2e}
{8.cc
16b
=7
8b
8a
4a
8a
8ee
8dd
8f#
=8
4a
4g
4r}
{8.g
16b
=9
4.a
8f#
8a
8g
8f#
8e
=10
4f#
4g
4a
4r}
=11
{4.cc
8cc
8cc
8b
8a
8g
=12
4.ee
8ee
8ee
8dd
8cc
8b}
=13
{8dd
8cc
8b
8a
8a
8g
8g
8f#
=14
2g
4r}
==
!!!AGN: Stimmungs - Lied, Freude, Hoffnung
!!!ONB: ESAC (Essen Associative Code) Database: BOEHME
!!!AMT: simple quadruple
!!!AIN: vox
!!!EED: Helmut Schaffrath
!!!EEV: 1.0
*-
